X:1
T:Now Is the Time to Decide
T:Now Is the Time to Decide
T:Carl Harold Lowden
T:Harriet Church, 1914
T:Public Domain Courtesy of the Cyber Hymnal™
T:Public Domain Courtesy of the Cyber Hymnal™
C:Carl Harold Lowden
Z:Public Domain
Z:Courtesy of the Cyber Hymnal™
%%score 1 2
L:1/8
Q:1/4=130
M:3/4
K:F
V:1 treble 
V:2 bass 
V:1
 z2 | [CFAc]6 | [FAc]6 | [Fd]2 [Fe]2 [Fd]2 | [Fc]4 z2 | [EBc]6 | [CEG]6 | [CFA]2 [DF=B]2 [DFB]2 | %8
w: |~|~|~ ~ ~|~|~|~|~ ~ ~|
 [CEGc]4 [CEGB]2 | [CFA]6 | [FAc]6 | [_EFA]2 [EFA]2 [EFA]2 | [DFB]4 z2 | [DFG=B]6 | %14
w: ~ ~|~|~|~ ~ ~|~|~|
 [DFG]2 [DFA]2 [DF=B]2 | [EGc]2 [EG]2 [^D^FA]2 | [EGB]6 ||"^Refrain" [FA]6 | [^DA]4 [DA]2 | %19
w: ~ ~ ~|~ ~ ~|~|Now|is the|
 [EB]2 [^D^F]2 [DA]2 | [EG]6 | [EB]6 | [Ee]4 [Ed]2 | [Fd]2 [Fc]2 [F=B]2 | [Fc]4 [Fc]2 | %25
w: time to de-|cide,|now|is the|time to de-|cide, Re-|
 [Af]2 [^Ge]2 [Gd]2 | [Ac]2 [^FB]2 [FA]2 | [DG]2 [D^F]2 [DG]2 | [Fd]4 [Fd]2 | [Fc]2 [F=B]2 [Fc]2 | %30
w: ject Him no|more, o- pen|wide your heart’s|door, Just|now is the|
 [Ed]2 [Ec]2 [CEg]2 | [CFf]4 |] %32
w: time to de-|cide.|
V:2
"^Melody" C,2 | C,2 D,2 E,2 | F,2 G,2 A,2 | B,2 C2 B,2 | A,4 A,2 | C2 G,2 A,2 | B,2 A,2 G,2 | %7
w: 1.~You|know that you|need the dear|Sav- ior of|men, And|yet you have|spurned Him a-|
w: 2.~Your|life with- out|Je- sus can-|not be com-|plete; His|love shed a-|broad in the|
w: 3.~He|bears ev- ery|bur- den, He|dries ev- ery|tear, Gives|strength for each|weak- ness and|
w: 4.~These|bless- ings are|yours with- out|mon- ey or|price; He|asks not a|thing but com-|
 F,2 G,2 A,2 | G,4 C,2 | C,2 D,2 E,2 | F,2 G,2 A,2 | D2 D2 C2 | B,4 A,2 | G,2 G,2 G,2 | %14
w: gain and a-|gain; Why|don’t you the|door of your|heart o- pen|wide, And|bid your Re-|
w: heart makes it|sweet; And|once you have|tast- ed the|joys He will|give, You’ll|won- der how|
w: casts out all|fear; With|man- na from|Hea- ven your|soul He will|feed, His|“rich- es in|
w: plete sac- ri-|fice; And|what you will|give you can|ne- ver com-|pare With|all the rich|
 =B,2 A,2 G,2"^riten." | C2 C2 C2 | C6 || [F,C]6 | [^F,C]4 [F,C]2 | [G,C]2 [A,C]2 [A,C]2 | [B,C]6 | %21
w: deem- er come|in and a-|bide?|||||
w: ev- er with-|out Him you’d|live.|||||
w: glo- ry” sup-|ply ev- ery|need.|||||
w: gifts that with|you He will|share.|||||
 [G,C]6 | [C,B,]4 [C,B,]2 | [F,B,]2 [F,A,]2 [F,^G,]2 | [F,A,]4 [F,A,]2 | [F,C]2 [F,=B,]2 [F,B,]2 | %26
w: |||||
w: |||||
w: |||||
w: |||||
 [F,C]2 [D,D]2 [D,C]2 | [G,B,]2 [G,A,]2 [G,B,]2 | [B,,G,]4 [=B,,^G,]2 | [C,A,]2 [C,^G,]2 [C,A,]2 | %30
w: ||||
w: ||||
w: ||||
w: ||||
 [C,B,]2 [C,B,]2 [C,B,]2 | [F,A,]4 |] %32
w: ||
w: ||
w: ||
w: ||

